X:191
T:Turnpike Gate. JGi.191
M:6/8
L:1/8
Q:3/8=120
S:Joshua Gibbons MS,1823,Tealby,Lincs.
R:jig
O:Tealby,Lincolnshire
Z:VMP/R.Greig, 2009
K:D
dedf2d|g2ea2f|dede2g|B2ec2A|
dedf2d|g2ea2f|dede2g|ABcd3:|
a2f fgf|g3ege|f2d ded|c2A ABc|
dcd ede|fef gfg|aba agf|f3d3:|

